azure-patterns/svg-machine-learning-server.svg

<svg xmlns="http://www.w3.org/2000/svg" viewBox="0 0 150 150">
                                
                            
    <path d="M147.619 133.35L99.9996 46.5812V8.07927H112.5V0H37.4993V8.07927H49.9994V46.5812L2.29917 133.35C-3.10086 142.35 1.39916 150 11.743 150H138.168C148.969 150 153.019 142.8 147.619 133.35ZM9.27434 140.102C8.68902 138.567 8.16595 136.939 9.60346 134.533L57.3037 49.5938L58.0787 48.1875V46.5812V8.07927H91.9203V46.5812V48.1875L92.689 49.5938L110.064 81.25H62.4994L28.4368 141.921H13.5722C10.9972 141.921 10.5183 141.311 9.27434 140.102ZM142.61 140.321C141.311 141.921 139.395 141.921 136.339 141.921H37.3848L68.0412 89.3293H113.495L140.364 134.621C141.952 137.402 142.61 138.11 142.61 140.321Z" fill="#1A1A1A"></path>
</svg>

<svg xmlns="http://www.w3.org/2000/svg" viewBox="0 0 150 150"><path d="M147.619 133.35l-47.62-86.769V8.08H112.5V0h-75v8.08H50V46.58L2.3 133.35c-5.4 9-.9 16.65 9.443 16.65h126.425c10.801 0 14.851-7.2 9.451-16.65zM9.274 140.102c-.585-1.535-1.108-3.163.33-5.569l47.7-84.94.775-1.406V8.08H91.92V48.187l.769 1.407 17.375 31.656H62.499l-34.062 60.671H13.572c-2.575 0-3.054-.61-4.298-1.819zm133.336.219c-1.299 1.6-3.215 1.6-6.271 1.6H37.385L68.04 89.329h45.454l26.869 45.292c1.588 2.781 2.246 3.489 2.246 5.7z" fill="#1A1A1A"/></svg>
